libs/ui/packages/crypto-icons/src/svg/RYO.svg

<svg width="24" height="24" viewBox="0 0 24 24" fill="none">
<path d="M12.0007 3.01123C7.04323 3.01123 3.01123 7.04323 3.01123 12.0007C3.01123 16.9582 7.04323 20.9887 12.0007 20.9887C16.9582 20.9887 20.9887 16.9575 20.9887 12.0007C20.9895 7.04323 16.9575 3.01123 12.0007 3.01123ZM12.0007 4.23523C13.0208 4.23395 14.0312 4.43394 14.9739 4.82374C15.9166 5.21355 16.7731 5.78552 17.4944 6.50688C18.2157 7.22824 18.7875 8.08481 19.1773 9.02754C19.567 9.97027 19.7669 10.9806 19.7655 12.0007C19.7668 13.0208 19.5668 14.031 19.177 14.9737C18.7873 15.9163 18.2154 16.7728 17.4941 17.4941C16.7728 18.2154 15.9163 18.7873 14.9737 19.177C14.031 19.5668 13.0208 19.7668 12.0007 19.7655C10.9806 19.7669 9.97027 19.567 9.02754 19.1773C8.08481 18.7875 7.22824 18.2157 6.50688 17.4944C5.78552 16.7731 5.21355 15.9166 4.82374 14.9739C4.43394 14.0312 4.23395 13.0208 4.23523 12.0007C4.23395 10.9806 4.43393 9.97022 4.82373 9.02748C5.21353 8.08475 5.78548 7.22818 6.50683 6.50683C7.22818 5.78548 8.08475 5.21353 9.02748 4.82373C9.97022 4.43393 10.9806 4.23395 12.0007 4.23523Z" fill="#3D58B0"/>
<path d="M8.66089 8.68127V15.3188H15.3396V8.68127H8.66089ZM9.74839 9.76877H14.2514V14.2313H9.74914V9.76877H9.74839Z" fill="#3D58B0"/>
</svg>

<svg width="24" height="24" viewBox="0 0 24 24" fill="none"><path fill="#3d58b0" d="M12 3.011c-4.957 0-8.989 4.032-8.989 8.99 0 4.957 4.032 8.988 8.99 8.988 4.957 0 8.988-4.032 8.988-8.988 0-4.958-4.032-8.99-8.988-8.99m0 1.224a7.756 7.756 0 0 1 7.765 7.766 7.754 7.754 0 0 1-7.764 7.765A7.755 7.755 0 0 1 4.235 12a7.756 7.756 0 0 1 7.766-7.766"/><path fill="#3d58b0" d="M8.66 8.681v6.638h6.68V8.68zM9.749 9.77h4.503v4.462H9.75z"/></svg>
